src/Pure-Dark/16/symbolic/status/checkbox-checked-symbolic.svg

<?xml version="1.0" encoding="UTF-8" standalone="no"?>
<svg
   width="16"
   height="16"
   version="1.1"
   id="svg1"
   sodipodi:docname="checkbox-checked-symbolic.svg"
   inkscape:version="1.4.2 (ebf0e940d0, 2025-05-08)"
   xmlns:inkscape="http://www.inkscape.org/namespaces/inkscape"
   xmlns:sodipodi="http://sodipodi.sourceforge.net/DTD/sodipodi-0.dtd"
   xmlns="http://www.w3.org/2000/svg"
   xmlns:svg="http://www.w3.org/2000/svg">
  <defs
     id="defs1">
     <style
        id="current-color-scheme"
        type="text/css">
        .ColorScheme-Text { color:#f2f2f2; }
        .ColorScheme-NeutralText { color:#f67400; }
        .ColorScheme-PositiveText { color:#37c837; }
        .ColorScheme-NegativeText { color:#f44336; }
        .ColorScheme-Highlight { color:#3daee9; }
     </style>
  </defs>
  <sodipodi:namedview
     id="namedview1"
     pagecolor="#ffffff"
     bordercolor="#000000"
     borderopacity="0.25"
     inkscape:showpageshadow="2"
     inkscape:pageopacity="0.0"
     inkscape:pagecheckerboard="0"
     inkscape:deskcolor="#d1d1d1"
     inkscape:zoom="49.6875"
     inkscape:cx="8"
     inkscape:cy="8"
     inkscape:window-width="1920"
     inkscape:window-height="1010"
     inkscape:window-x="0"
     inkscape:window-y="0"
     inkscape:window-maximized="1"
     inkscape:current-layer="svg1" />
  <path
     id="path1"
     style="fill:currentColor"
     class="ColorScheme-Text"
     d="M 3 1 C 1.892 1 1 1.892 1 3 L 1 13 C 1 14.108 1.892 15 3 15 L 13 15 C 14.108 15 15 14.108 15 13 L 15 3 C 15 1.892 14.108 1 13 1 L 3 1 z M 3 2 L 13 2 C 13.554 2 14 2.446 14 3 L 14 13 C 14 13.554 13.554 14 13 14 L 3 14 C 2.446 14 2 13.554 2 13 L 2 3 C 2 2.446 2.446 2 3 2 z M 11.949219 4.6367188 L 7 9.5859375 L 4.171875 6.7578125 L 3.4648438 7.4648438 L 7 11 L 12.65625 5.34375 L 11.949219 4.6367188 z " />
</svg>

<svg width="16" height="16" version="1.1" xmlns="http://www.w3.org/2000/svg">
 <path d="m3 1c-1.108 0-2 0.892-2 2v10c0 1.108 0.892 2 2 2h10c1.108 0 2-0.892 2-2v-10c0-1.108-0.892-2-2-2h-10zm0 1h10c0.554 0 1 0.446 1 1v10c0 0.554-0.446 1-1 1h-10c-0.554 0-1-0.446-1-1v-10c0-0.554 0.446-1 1-1zm8.9492 2.6367-4.9492 4.9492-2.8281-2.8281-0.70703 0.70703 3.5352 3.5352 5.6562-5.6562-0.70703-0.70703z" fill="#f2f2f2" stroke-linecap="round" stroke-linejoin="round" stroke-width="2"/>
</svg>
